X:6
T:La fille au Roi Louis
R:Chanson
O:France
B:Le livre des Chansons (Henri Davenson) n°6
Z:<anamnese@caramail.com> -- http://anamnese.fr.st
M:6/8
L:1/8
Q:1/4=110
K:G
E E E | B3 A B G | E3 E F G | F3 E F D | B,2 z G G G |
        G3 D F G | B3 B c B | E3 D G F | E3-E2 z2 ||
W:Le roi Louis est sur son pont,
W:Tenant sa fille en son giron ;
W:Elle se voudrait bien marier
W:Au beau Déon, franc chevalier.
W:
W:"Ma fille, n'aimez jamais Déon, / Car c'est un chevalier félon ;
W:C'est le plus pauvre chevalier, / Qui n'a pas vaillant six deniers. /.../

